source/img/icons/icon-plane.svg

<svg width="23" height="22" viewBox="0 0 23 22" fill="none" xmlns="http://www.w3.org/2000/svg">
<g clip-path="url(#clip0)">
<path d="M18.5347 1.1803C17.7301 1.36073 16.9218 1.542 16.6212 2.03873L14.2941 6.41228L1.79919 9.21442L1.29295 10.6118L10.8544 11.4647L9.23212 15.2509L5.60602 16.0641L4.69562 17.5521L7.31158 17.8201L7.60988 19.0371C7.74352 19.4685 8.21259 19.7565 8.61297 19.6667L9.82168 19.3956L11.2228 21.6492L12.1332 20.1611L11.2383 16.5101L13.8637 13.3536L18.8731 21.6468L19.8832 20.5656L16.8005 7.9887L19.6314 3.93144C19.9358 3.43387 19.7373 2.6238 19.5378 1.80994C19.439 1.40681 18.9351 1.09051 18.5347 1.1803Z" fill="#101D41"/>
</g>
<defs>
<clipPath id="clip0">
<rect width="23" height="22" fill="white"/>
</clipPath>
</defs>
</svg>

<svg width="23" height="22" fill="none" xmlns="http://www.w3.org/2000/svg"><g clip-path="url(#clip0)"><path d="M18.535 1.18c-.805.18-1.613.362-1.914.859l-2.327 4.373L1.8 9.214l-.506 1.398 9.561.853-1.622 3.786-3.626.813-.91 1.488 2.616.268.298 1.217c.134.431.603.72 1.003.63l1.209-.271 1.4 2.253.911-1.488-.895-3.65 2.626-3.157 5.01 8.293 1.01-1.081L16.8 7.989l2.831-4.058c.305-.497.106-1.307-.093-2.121-.099-.403-.603-.72-1.003-.63z" fill="#DDE0E6"/></g><defs><clipPath id="clip0"><path fill="#fff" d="M0 0h23v22H0z"/></clipPath></defs></svg>
